; generated by PrusaSlicer 2.0.0+win64 on 2019-07-24 at 20:31:18

; 

; external perimeters extrusion width = 0.45mm
; perimeters extrusion width = 0.45mm
; infill extrusion width = 0.45mm
; solid infill extrusion width = 0.45mm
; top infill extrusion width = 0.40mm
; first layer extrusion width = 0.42mm

M73 P0 R36
M73 Q0 S36
M201 X1000 Y1000 Z1000 E5000 ; sets maximum accelerations, mm/sec^2
M203 X200 Y200 Z12 E120 ; sets maximum feedrates, mm/sec
M204 P1250 R1250 T1250 ; sets acceleration (P, T) and retract acceleration (R), mm/sec^2
M205 X8.00 Y8.00 Z0.40 E1.50 ; sets the jerk limits, mm/sec
M205 S0 T0 ; sets the minimum extruding and travel feed rate, mm/sec
M107
M115 U3.7.1 ; tell printer latest fw version
G90 ; use absolute coordinates
M83 ; extruder relative mode
M104 S215 ; set extruder temp
M140 S65 ; set bed temp
M190 S65 ; wait for bed temp
M109 S215 ; wait for extruder temp
G28 W ; home all without mesh bed level
G80 ; mesh bed leveling
G1 Y-3.0 F1000.0 ; go outside print area
G92 E0.0
G1 X60.0 E9.0 F1000.0 ; intro line
M73 Q0 S36
M73 P0 R36
G1 X100.0 E12.5 F1000.0 ; intro line
G92 E0.0
M221 S95
M900 K30 ; Filament gcode
G21 ; set units to millimeters
G90 ; use absolute coordinates
M83 ; use relative distances for extrusion
;BEFORE_LAYER_CHANGE
G92 E0.0
;0.2


G1 E-0.80000 F2100.00000
G1 Z0.600 F10800.000
;AFTER_LAYER_CHANGE
;0.2
G1 X114.451 Y96.310
G1 Z0.200
G1 E0.80000 F2100.00000
M204 S1000
G1 F1200
G1 X115.421 Y95.251 E0.04504
G1 X116.501 Y94.297 E0.04516
G1 X117.369 Y93.662 E0.03371
G1 X118.599 Y92.924 E0.04499
G1 X119.935 Y92.306 E0.04615
G1 X121.303 Y91.843 E0.04528
G1 X122.340 Y91.594 E0.03342
G1 X123.762 Y91.389 E0.04507
G1 X125.168 Y91.334 E0.04410
G1 X126.301 Y91.395 E0.03558
G1 X127.694 Y91.601 E0.04415
G1 X129.089 Y91.959 E0.04516
G1 X130.096 Y92.319 E0.03354
G1 X131.403 Y92.925 E0.04516
G1 X132.638 Y93.666 E0.04516
G1 X133.812 Y94.554 E0.04615
G1 X134.605 Y95.278 E0.03367
G1 X135.575 Y96.342 E0.04516
G1 X136.425 Y97.500 E0.04504
G1 X136.977 Y98.417 E0.03354
G1 X137.607 Y99.721 E0.04541
G1 X138.100 Y101.104 E0.04603
G1 X138.437 Y102.504 E0.04516
G1 X138.592 Y103.568 E0.03372
G1 X138.667 Y105.037 E0.04610
G1 X138.587 Y106.479 E0.04528
G1 X138.356 Y107.897 E0.04504
G1 X138.089 Y108.932 E0.03354
G1 X137.603 Y110.288 E0.04516
G1 X136.959 Y111.616 E0.04628
G1 X136.198 Y112.835 E0.04504
G1 X135.549 Y113.690 E0.03367
G1 X134.576 Y114.752 E0.04516
G1 X133.499 Y115.703 E0.04504
G1 X132.631 Y116.338 E0.03372
G1 X131.397 Y117.078 E0.04511
G1 X130.061 Y117.695 E0.04615
G1 X128.697 Y118.157 E0.04516
G1 X127.651 Y118.407 E0.03372
G1 X126.228 Y118.612 E0.04508
G1 X124.778 Y118.665 E0.04550
G1 X123.362 Y118.568 E0.04448
G1 X122.264 Y118.390 E0.03490
G1 X120.866 Y118.027 E0.04528
G1 X119.492 Y117.508 E0.04603
G1 X118.203 Y116.857 E0.04528
G1 X117.297 Y116.289 E0.03354
G1 X116.151 Y115.416 E0.04516
G1 X115.110 Y114.432 E0.04491
G1 X114.400 Y113.627 E0.03367
G1 X113.551 Y112.463 E0.04516
G1 X112.831 Y111.220 E0.04504
G1 X112.379 Y110.244 E0.03372
G1 X111.899 Y108.892 E0.04499
G1 X111.562 Y107.492 E0.04516
G1 X111.408 Y106.432 E0.03359
G1 X111.333 Y104.963 E0.04610
G1 X111.413 Y103.521 E0.04528
G1 X111.644 Y102.103 E0.04504
G1 X111.911 Y101.067 E0.03354
G1 X112.399 Y99.708 E0.04528
G1 X113.041 Y98.384 E0.04615
G1 X113.802 Y97.165 E0.04504
G1 X114.415 Y96.358 E0.03179
G1 X114.718 Y96.580 F10800.000
G1 F1200
G1 X115.686 Y95.520 E0.04501
G1 X116.739 Y94.589 E0.04409
G1 X117.575 Y93.978 E0.03244
G1 X118.775 Y93.258 E0.04391
G1 X120.075 Y92.656 E0.04489
G1 X121.410 Y92.204 E0.04420
G1 X122.411 Y91.965 E0.03226
G1 X123.797 Y91.764 E0.04392
G1 X125.167 Y91.711 E0.04299
G1 X126.262 Y91.770 E0.03438
G1 X127.619 Y91.970 E0.04301
G1 X128.981 Y92.320 E0.04409
G1 X129.954 Y92.668 E0.03238
G1 X131.226 Y93.258 E0.04398
G1 X132.431 Y93.982 E0.04409
G1 X133.574 Y94.845 E0.04489
G1 X134.339 Y95.544 E0.03249
G1 X135.283 Y96.581 E0.04398
G1 X136.113 Y97.712 E0.04397
G1 X136.645 Y98.596 E0.03238
G1 X137.257 Y99.863 E0.04410
G1 X137.739 Y101.211 E0.04488
G1 X138.067 Y102.578 E0.04409
G1 X138.216 Y103.602 E0.03245
G1 X138.290 Y105.034 E0.04493
G1 X138.212 Y106.438 E0.04409
G1 X137.987 Y107.822 E0.04397
G1 X137.729 Y108.822 E0.03238
G1 X137.254 Y110.145 E0.04409
G1 X136.629 Y111.434 E0.04489
G1 X135.886 Y112.623 E0.04397
G1 X135.259 Y113.448 E0.03249
G1 X134.312 Y114.482 E0.04397
G1 X133.235 Y115.431 E0.04501
G1 X132.090 Y116.241 E0.04397
G1 X131.192 Y116.759 E0.03249
G1 X129.919 Y117.346 E0.04398
G1 X128.590 Y117.796 E0.04397
G1 X127.583 Y118.036 E0.03245
G1 X126.199 Y118.236 E0.04387
G1 X124.770 Y118.288 E0.04481
G1 X123.398 Y118.193 E0.04313
G1 X122.339 Y118.021 E0.03364
G1 X120.980 Y117.668 E0.04402
G1 X119.641 Y117.162 E0.04489
G1 X118.386 Y116.527 E0.04409
G1 X117.511 Y115.979 E0.03238
G1 X116.396 Y115.129 E0.04397
G1 X115.376 Y114.165 E0.04398
G1 X114.694 Y113.391 E0.03238
G1 X113.867 Y112.258 E0.04398
G1 X113.164 Y111.044 E0.04397
G1 X112.730 Y110.105 E0.03245
G1 X112.260 Y108.785 E0.04390
G1 X111.932 Y107.418 E0.04409
G1 X111.748 Y105.998 E0.04489
G1 X111.710 Y104.966 E0.03238
G1 X111.788 Y103.562 E0.04409
G1 X112.013 Y102.178 E0.04397
G1 X112.271 Y101.178 E0.03238
G1 X112.745 Y99.858 E0.04397
G1 X113.355 Y98.595 E0.04397
G1 X113.889 Y97.709 E0.03245
G1 X114.682 Y96.628 E0.04202
G1 F8640
G1 X115.686 Y95.520 E-0.34524
G1 X116.739 Y94.589 E-0.32469
G1 X117.054 Y94.359 E-0.09007
G1 E-0.04000 F2100.00000
G1 Z0.800 F10800.000
G1 X121.573 Y111.629
G1 Z0.200
G1 E0.80000 F2100.00000
G1 F1200
G1 X128.513 Y111.629 E0.21760
G1 X128.513 Y114.569 E0.09218
G1 X121.573 Y114.569 E0.21760
G1 X121.573 Y111.689 E0.09030
G1 X121.421 Y111.259 F10800.000
G1 F8640
G1 X124.864 Y111.660 E-0.76000
G1 E-0.04000 F2100.00000
G1 Z0.800 F10800.000
G1 X121.608 Y114.946
G1 Z0.200
G1 E0.80000 F2100.00000
G1 F1200
G1 X128.392 Y114.946 E0.21270
G1 X127.818 Y115.130 E0.01890
G1 X127.070 Y115.309 E0.02413
G1 X126.698 Y115.376 E0.01184
G1 X125.943 Y115.472 E0.02385
G1 X125.567 Y115.499 E0.01183
G1 X124.813 Y115.512 E0.02364
G1 X124.046 Y115.471 E0.02410
G1 X123.304 Y115.376 E0.02345
G1 X122.555 Y115.226 E0.02394
G1 X121.665 Y114.966 E0.02909
G1 F8640
G1 X124.956 Y114.956 E-0.76000
G1 E-0.04000 F2100.00000
G1 Z0.800 F10800.000
G1 X123.252 Y111.065
G1 Z0.200
G1 E0.80000 F2100.00000
G1 F1200
G1 X122.671 Y110.866 E0.01927
G1 X122.111 Y110.612 E0.01927
G1 X121.579 Y110.304 E0.01927
G1 X121.079 Y109.947 E0.01927
G1 X120.617 Y109.542 E0.01927
G1 X120.196 Y109.094 E0.01927
G1 X119.821 Y108.607 E0.01927
G1 X119.494 Y108.086 E0.01927
G1 X119.220 Y107.536 E0.01927
G1 X119.001 Y106.962 E0.01927
G1 X118.839 Y106.369 E0.01927
G1 X118.735 Y105.764 E0.01927
G1 X118.690 Y105.151 E0.01927
G1 X118.705 Y104.536 E0.01927
G1 X118.780 Y103.926 E0.01927
G1 X118.914 Y103.326 E0.01927
G1 X119.106 Y102.742 E0.01927
G1 X119.353 Y102.180 E0.01927
G1 X119.654 Y101.644 E0.01927
G1 X120.006 Y101.140 E0.01927
G1 X120.405 Y100.673 E0.01927
G1 X120.848 Y100.246 E0.01927
G1 X121.330 Y99.865 E0.01927
G1 X121.847 Y99.532 E0.01927
G1 X122.393 Y99.251 E0.01927
G1 X122.965 Y99.025 E0.01927
G1 X123.558 Y98.855 E0.01935
G1 X124.162 Y98.744 E0.01925
G1 X124.472 Y98.710 E0.00977
G1 X125.069 Y98.689 E0.01873
G1 X125.690 Y98.726 E0.01953
G1 X126.297 Y98.823 E0.01927
G1 X126.889 Y98.977 E0.01917
G1 X127.466 Y99.190 E0.01927
G1 X128.019 Y99.457 E0.01927
G1 X128.544 Y99.777 E0.01927
G1 X129.035 Y100.146 E0.01927
G1 X129.488 Y100.562 E0.01927
G1 X129.898 Y101.019 E0.01927
G1 X130.262 Y101.515 E0.01927
G1 X130.576 Y102.043 E0.01927
G1 X130.838 Y102.599 E0.01927
G1 X131.043 Y103.179 E0.01927
G1 X131.192 Y103.775 E0.01927
G1 X131.282 Y104.383 E0.01927
G1 X131.312 Y104.997 E0.01927
G1 X131.282 Y105.611 E0.01927
G1 X131.193 Y106.219 E0.01927
G1 X131.043 Y106.821 E0.01946
G1 X130.838 Y107.400 E0.01927
G1 X130.576 Y107.957 E0.01927
G1 X130.262 Y108.485 E0.01927
G1 X129.898 Y108.980 E0.01927
G1 X129.488 Y109.438 E0.01927
G1 X129.035 Y109.853 E0.01927
G1 X128.544 Y110.223 E0.01927
G1 X128.019 Y110.543 E0.01927
G1 X127.466 Y110.810 E0.01927
G1 X126.889 Y111.022 E0.01927
G1 X126.297 Y111.177 E0.01917
G1 X125.691 Y111.274 E0.01927
G1 X125.072 Y111.311 E0.01943
G1 X124.463 Y111.289 E0.01912
G1 X123.854 Y111.207 E0.01925
G1 X123.311 Y111.079 E0.01751
G1 X122.964 Y111.343 F10800.000
G1 X122.633 Y111.252
G1 F1200
G1 X121.196 Y111.252 E0.04504
G1 X121.196 Y114.799 E0.11121
G1 X120.763 Y114.623 E0.01465
G1 X120.075 Y114.289 E0.02397
G1 X119.413 Y113.907 E0.02397
G1 X119.100 Y113.703 E0.01173
G1 X118.790 Y113.484 E0.01189
G1 X118.193 Y113.013 E0.02382
G1 X117.629 Y112.498 E0.02397
G1 X117.370 Y112.235 E0.01157
G1 X116.865 Y111.661 E0.02397
G1 X116.403 Y111.053 E0.02396
G1 X115.988 Y110.416 E0.02382
G1 X115.803 Y110.097 E0.01157
G1 X115.455 Y109.410 E0.02414
G1 X115.306 Y109.072 E0.01157
G1 X115.034 Y108.352 E0.02414
G1 X114.921 Y107.995 E0.01173
G1 X114.820 Y107.630 E0.01189
G1 X114.656 Y106.883 E0.02399
G1 X114.596 Y106.519 E0.01157
G1 X114.513 Y105.759 E0.02397
G1 X114.486 Y104.995 E0.02397
G1 X114.493 Y104.621 E0.01172
G1 X114.547 Y103.863 E0.02382
G1 X114.658 Y103.107 E0.02396
G1 X114.821 Y102.365 E0.02382
G1 X115.036 Y101.643 E0.02362
G1 X115.306 Y100.928 E0.02399
G1 X115.455 Y100.590 E0.01157
G1 X115.801 Y99.908 E0.02397
G1 X116.195 Y99.254 E0.02396
G1 X116.633 Y98.633 E0.02382
G1 X117.110 Y98.050 E0.02362
G1 X117.636 Y97.495 E0.02399
G1 X117.904 Y97.241 E0.01157
G1 X118.487 Y96.746 E0.02397
G1 X119.104 Y96.295 E0.02396
G1 X119.747 Y95.892 E0.02382
G1 X120.409 Y95.541 E0.02347
G1 X121.196 Y95.201 E0.02688
G1 X121.196 Y98.748 E0.11121
G1 X122.640 Y98.748 E0.04529
G1 X122.238 Y98.908 E0.01358
G1 X121.658 Y99.205 E0.02042
G1 X121.110 Y99.558 E0.02042
G1 X120.599 Y99.962 E0.02042
G1 X120.130 Y100.414 E0.02042
G1 X119.707 Y100.909 E0.02042
G1 X119.335 Y101.443 E0.02042
G1 X119.016 Y102.011 E0.02042
G1 X118.753 Y102.607 E0.02042
G1 X118.550 Y103.226 E0.02042
G1 X118.408 Y103.862 E0.02042
G1 X118.329 Y104.508 E0.02042
G1 X118.313 Y105.160 E0.02042
G1 X118.360 Y105.809 E0.02042
G1 X118.470 Y106.451 E0.02042
G1 X118.642 Y107.080 E0.02042
G1 X118.875 Y107.688 E0.02042
G1 X119.165 Y108.271 E0.02042
G1 X119.511 Y108.823 E0.02042
G1 X119.909 Y109.339 E0.02042
G1 X120.355 Y109.813 E0.02042
G1 X120.845 Y110.242 E0.02042
G1 X121.375 Y110.622 E0.02042
G1 X121.938 Y110.948 E0.02042
G1 X122.576 Y111.232 E0.02188
G1 F8640
G1 X121.196 Y111.252 E-0.31864
G1 X121.196 Y113.163 E-0.44136
G1 E-0.04000 F2100.00000
G1 Z0.800 F10800.000
G1 X121.573 Y95.431
G1 Z0.200
G1 E0.80000 F2100.00000
G1 F1200
G1 X128.513 Y95.431 E0.21760
G1 X128.513 Y98.371 E0.09218
G1 X121.573 Y98.371 E0.21760
G1 X121.573 Y95.491 E0.09030
G1 X121.421 Y95.061 F10800.000
G1 X121.608 Y95.054
G1 F1200
G1 X121.823 Y94.977 E0.00716
G1 X122.560 Y94.773 E0.02397
G1 X123.296 Y94.625 E0.02354
G1 X124.057 Y94.528 E0.02407
G1 X124.435 Y94.501 E0.01188
G1 X125.189 Y94.488 E0.02363
G1 X125.954 Y94.529 E0.02403
G1 X126.698 Y94.624 E0.02352
G1 X127.440 Y94.773 E0.02372
G1 X128.405 Y95.054 E0.03152
G1 X121.668 Y95.054 E0.21124
G1 F8640
G1 X121.823 Y94.977 E-0.03998
G1 X122.560 Y94.773 E-0.17652
G1 X123.296 Y94.625 E-0.17338
G1 X124.057 Y94.528 E-0.17723
G1 X124.435 Y94.501 E-0.08746
G1 X124.892 Y94.493 E-0.10543
G1 E-0.04000 F2100.00000
G1 Z0.800 F10800.000
G1 X127.358 Y98.748
G1 Z0.200
G1 E0.80000 F2100.00000
G1 F1200
G1 X128.890 Y98.748 E0.04804
G1 X128.890 Y95.239 E0.11002
G1 X129.242 Y95.379 E0.01187
G1 X129.929 Y95.713 E0.02396
G1 X130.587 Y96.093 E0.02382
G1 X131.210 Y96.516 E0.02362
G1 X131.807 Y96.986 E0.02382
G1 X132.371 Y97.502 E0.02396
G1 X132.893 Y98.054 E0.02382
G1 X133.135 Y98.339 E0.01173
G1 X133.370 Y98.637 E0.01189
G1 X133.811 Y99.262 E0.02399
G1 X134.007 Y99.575 E0.01157
G1 X134.377 Y100.244 E0.02397
G1 X134.696 Y100.933 E0.02380
G1 X134.966 Y101.648 E0.02397
G1 X135.077 Y102.000 E0.01157
G1 X135.268 Y102.740 E0.02397
G1 X135.406 Y103.492 E0.02397
G1 X135.453 Y103.863 E0.01173
G1 X135.487 Y104.241 E0.01189
G1 X135.514 Y105.000 E0.02382
G1 X135.487 Y105.764 E0.02397
G1 X135.406 Y106.508 E0.02347
G1 X135.268 Y107.260 E0.02397
G1 X135.077 Y108.000 E0.02396
G1 X134.834 Y108.720 E0.02382
G1 X134.698 Y109.063 E0.01157
G1 X134.377 Y109.756 E0.02397
G1 X134.007 Y110.425 E0.02397
G1 X133.811 Y110.738 E0.01157
G1 X133.367 Y111.367 E0.02414
G1 X133.139 Y111.657 E0.01157
G1 X132.630 Y112.235 E0.02414
G1 X132.371 Y112.498 E0.01157
G1 X131.803 Y113.017 E0.02414
G1 X131.517 Y113.251 E0.01157
G1 X130.896 Y113.705 E0.02412
G1 X130.253 Y114.108 E0.02382
G1 X129.930 Y114.287 E0.01157
G1 X129.237 Y114.623 E0.02414
G1 X128.890 Y114.768 E0.01179
G1 X128.890 Y111.252 E0.11025
G1 X127.358 Y111.252 E0.04804
G1 X127.613 Y111.158 E0.00853
G1 X128.200 Y110.874 E0.02042
G1 X128.756 Y110.535 E0.02042
G1 X129.277 Y110.144 E0.02042
G1 X129.757 Y109.703 E0.02042
G1 X130.191 Y109.219 E0.02042
G1 X130.577 Y108.694 E0.02042
G1 X130.910 Y108.134 E0.02042
G1 X131.187 Y107.544 E0.02042
G1 X131.405 Y106.930 E0.02043
G1 X131.563 Y106.292 E0.02062
G1 X131.658 Y105.647 E0.02043
G1 X131.689 Y104.997 E0.02042
G1 X131.657 Y104.346 E0.02042
G1 X131.562 Y103.702 E0.02042
G1 X131.405 Y103.070 E0.02042
G1 X131.187 Y102.456 E0.02042
G1 X130.910 Y101.866 E0.02042
G1 X130.577 Y101.306 E0.02042
G1 X130.191 Y100.781 E0.02042
G1 X129.757 Y100.296 E0.02042
G1 X129.277 Y99.856 E0.02042
G1 X128.756 Y99.465 E0.02042
G1 X128.200 Y99.126 E0.02042
G1 X127.613 Y98.842 E0.02042
G1 X127.414 Y98.769 E0.00665
G1 F8640
G1 X128.890 Y98.748 E-0.34081
G1 X128.890 Y96.933 E-0.41919
G1 E-0.04000 F2100.00000
G1 Z0.800 F10800.000
G1 X128.970 Y94.865
G1 Z0.200
G1 E0.80000 F2100.00000
G1 F1200
G1 X129.394 Y95.034 E0.01431
G1 X130.106 Y95.380 E0.02481
G1 X130.784 Y95.771 E0.02456
G1 X131.436 Y96.214 E0.02469
G1 X132.051 Y96.699 E0.02456
G1 X132.635 Y97.233 E0.02481
G1 X133.174 Y97.802 E0.02456
G1 X133.427 Y98.100 E0.01227
G1 X133.672 Y98.411 E0.01243
G1 X134.125 Y99.053 E0.02462
G1 X134.332 Y99.383 E0.01221
G1 X134.713 Y100.073 E0.02472
G1 X135.043 Y100.787 E0.02466
G1 X135.322 Y101.524 E0.02472
G1 X135.440 Y101.895 E0.01221
G1 X135.637 Y102.659 E0.02472
G1 X135.778 Y103.434 E0.02472
G1 X135.828 Y103.822 E0.01227
G1 X135.863 Y104.217 E0.01242
G1 X135.891 Y105.000 E0.02456
G1 X135.863 Y105.788 E0.02472
G1 X135.828 Y106.178 E0.01227
G1 X135.778 Y106.566 E0.01227
G1 X135.637 Y107.341 E0.02472
G1 X135.439 Y108.107 E0.02481
G1 X135.188 Y108.850 E0.02456
G1 X135.044 Y109.212 E0.01221
G1 X134.713 Y109.927 E0.02472
G1 X134.332 Y110.617 E0.02472
G1 X134.125 Y110.947 E0.01221
G1 X133.670 Y111.593 E0.02478
G1 X133.428 Y111.899 E0.01221
G1 X132.906 Y112.491 E0.02478
G1 X132.633 Y112.769 E0.01221
G1 X132.050 Y113.302 E0.02478
G1 X131.748 Y113.549 E0.01221
G1 X131.108 Y114.017 E0.02487
G1 X130.444 Y114.433 E0.02456
G1 X130.103 Y114.622 E0.01221
G1 X129.392 Y114.967 E0.02478
G1 X129.033 Y115.117 E0.01221
G1 X128.289 Y115.383 E0.02478
G1 X127.916 Y115.494 E0.01221
G1 X127.147 Y115.678 E0.02477
G1 X126.755 Y115.749 E0.01248
G1 X125.981 Y115.847 E0.02449
G1 X125.584 Y115.876 E0.01247
G1 X124.806 Y115.890 E0.02438
G1 X124.012 Y115.846 E0.02495
G1 X123.246 Y115.749 E0.02419
G1 X122.851 Y115.677 E0.01260
G1 X122.464 Y115.592 E0.01242
G1 X121.709 Y115.382 E0.02456
G1 X120.967 Y115.117 E0.02472
G1 X120.608 Y114.967 E0.01221
G1 X119.898 Y114.623 E0.02472
G1 X119.216 Y114.229 E0.02472
G1 X118.888 Y114.015 E0.01227
G1 X118.564 Y113.786 E0.01243
G1 X117.949 Y113.301 E0.02456
G1 X117.367 Y112.769 E0.02472
G1 X117.094 Y112.491 E0.01221
G1 X116.573 Y111.900 E0.02472
G1 X116.094 Y111.270 E0.02481
G1 X115.667 Y110.614 E0.02456
G1 X115.472 Y110.276 E0.01221
G1 X115.114 Y109.571 E0.02478
G1 X114.957 Y109.215 E0.01221
G1 X114.678 Y108.476 E0.02478
G1 X114.560 Y108.103 E0.01227
G1 X114.454 Y107.721 E0.01242
G1 X114.285 Y106.954 E0.02462
G1 X114.222 Y106.570 E0.01221
G1 X114.137 Y105.786 E0.02472
G1 X114.108 Y104.998 E0.02472
G1 X114.116 Y104.604 E0.01237
G1 X114.172 Y103.822 E0.02456
G1 X114.287 Y103.039 E0.02481
G1 X114.455 Y102.274 E0.02456
G1 X114.560 Y101.897 E0.01227
G1 X114.680 Y101.519 E0.01242
G1 X114.957 Y100.785 E0.02462
G1 X115.114 Y100.428 E0.01221
